X:1
T: Loch Leven Side
C:
R:Jig
Q:180
K:A
M:6/8
L:1/16
|:A2|A6 B3AB2|c3BA2 d4f2|e3dc2 B2A2B2|c2A2E2 E4A2|
A6 B3AB2|c3BA2 d4f2|e3dc2 B3AB2|c2A2A2 A4:|
fg|a3gf2 e3dc2|c3de2 f4af|e3dc2 B3AB2|c2A2E2 E4fg|
a3gf2 e3dc2|c3de2 f4af|e3dc2 B3AB2|c2A2A2 A4fg|
a3fb2 a4g2|f3de2 f4af|e3dc2 B3AB2|c2A2E2 E4cB|
A3EA2 B3AB2|c3BA2 d4f2|e3dc2 B3AB2|c2A2A2 A4||
